packages/tokens/icons/bag2Bag/size24Px.svg

<svg viewBox="0 0 24 24" fill="none" xmlns="http://www.w3.org/2000/svg" width="1em" height="1em"><path d="M3.31602 6.78787C3.42159 6.04889 4.05447 5.5 4.80094 5.5H8.19906C8.94553 5.5 9.57841 6.04889 9.68398 6.78787L10.2554 10.7879C10.3845 11.6915 9.68331 12.5 8.77049 12.5H4.22951C3.31669 12.5 2.6155 11.6915 2.74459 10.7879L3.31602 6.78787Z" stroke="currentColor"/><path d="M8 6.5V5.5C8 4.47809 7.59767 3.5 6.5 3.5C5.40233 3.5 5 4.47809 5 5.5V6.5" stroke="currentColor" stroke-linecap="round"/><path d="M14.316 14.7879C14.4216 14.0489 15.0545 13.5 15.8009 13.5H19.1991C19.9455 13.5 20.5784 14.0489 20.684 14.7879L21.2554 18.7879C21.3845 19.6915 20.6833 20.5 19.7705 20.5H15.2295C14.3167 20.5 13.6155 19.6915 13.7446 18.7879L14.316 14.7879Z" stroke="currentColor"/><path d="M19 14.5V13.5C19 12.4781 18.5977 11.5 17.5 11.5C16.4023 11.5 16 12.4781 16 13.5V14.5" stroke="currentColor" stroke-linecap="round"/><path d="M13.5 5.5H17.5C18.6046 5.5 19.5 6.39543 19.5 7.5V9.5" stroke="currentColor" stroke-linecap="round"/><path d="M14.5 3.5L12.5 5.5L14.5 7.5" stroke="currentColor" stroke-linecap="round" stroke-linejoin="round"/><path d="M9.5 18.5H5.5C4.39543 18.5 3.5 17.6046 3.5 16.5V14.5" stroke="currentColor" stroke-linecap="round"/><path d="M8.49999 20.5L10.5 18.5L8.50002 16.5" stroke="currentColor" stroke-linecap="round" stroke-linejoin="round"/></svg>

<svg xmlns="http://www.w3.org/2000/svg" fill="none" viewBox="0 0 24 24" width="1em" height="1em"><path stroke="currentColor" d="M3.316 6.788A1.5 1.5 0 0 1 4.801 5.5h3.398a1.5 1.5 0 0 1 1.485 1.288l.571 4A1.5 1.5 0 0 1 8.77 12.5H4.23a1.5 1.5 0 0 1-1.485-1.712l.571-4Z"/><path stroke="currentColor" stroke-linecap="round" d="M8 6.5v-1c0-1.022-.402-2-1.5-2-1.098 0-1.5.978-1.5 2v1"/><path stroke="currentColor" d="M14.316 14.788a1.5 1.5 0 0 1 1.485-1.288h3.398a1.5 1.5 0 0 1 1.485 1.288l.571 4A1.5 1.5 0 0 1 19.77 20.5h-4.54a1.5 1.5 0 0 1-1.485-1.712l.571-4Z"/><path stroke="currentColor" stroke-linecap="round" d="M19 14.5v-1c0-1.022-.402-2-1.5-2-1.098 0-1.5.978-1.5 2v1m-2.5-9h4a2 2 0 0 1 2 2v2"/><path stroke="currentColor" stroke-linecap="round" stroke-linejoin="round" d="m14.5 3.5-2 2 2 2"/><path stroke="currentColor" stroke-linecap="round" d="M9.5 18.5h-4a2 2 0 0 1-2-2v-2"/><path stroke="currentColor" stroke-linecap="round" stroke-linejoin="round" d="m8.5 20.5 2-2-2-2"/></svg>
